X:1
T: The Calisthenic Hornpipe
C:
R:Reel
Q: 232
K:A
M:4/4
L:1/8
EA|:cA BG AE ^DE|cA BG AE ^DE|AG AB cd ef|ec Ac B2 EA|
cA BG AE ^DE|cA BG AE ^DE|AG AB cB Ac|1BA GB A2 EA:|2BA GB A2 cd|
|:e3f e^d e=f|f2 f2 f3g|ag fe dc BA|GA BG EG Ac|
e3f e^d e=f|f2 f2 f3g|ag fe dc BA|1GA BG A2 cd:|2GA BG A2||
